X:5652
T:Rose,The. WM039
O:england
M:6/8
L:1/8
Q:105
S:Wm.Mittell,1799
R:Jig
A:Kent
K:C
(3G/A/B/|cGc c2d|ece e2f|gec fdB|c2cc2:|
|:e/-f/|gag gec|ded dBG|ABc def|eccc2:|]


